icons/svg/sport/swimming_outdoor.svg

<?xml version="1.0" encoding="UTF-8" standalone="no"?>
<!-- Created with Inkscape (http://www.inkscape.org/) -->

<svg
   xmlns:i="http://ns.adobe.com/AdobeIllustrator/10.0/"
   xmlns:dc="http://purl.org/dc/elements/1.1/"
   xmlns:cc="http://creativecommons.org/ns#"
   xmlns:rdf="http://www.w3.org/1999/02/22-rdf-syntax-ns#"
   xmlns:svg="http://www.w3.org/2000/svg"
   xmlns="http://www.w3.org/2000/svg"
   xmlns:sodipodi="http://sodipodi.sourceforge.net/DTD/sodipodi-0.dtd"
   xmlns:inkscape="http://www.inkscape.org/namespaces/inkscape"
   version="1.0"
   width="580"
   height="580"
   id="svg2"
   sodipodi:version="0.32"
   inkscape:version="0.91 r"
   sodipodi:docname="swimming_outdoor.svg"
   inkscape:output_extension="org.inkscape.output.svg.inkscape">
  <metadata
     id="metadata1976">
    <rdf:RDF>
      <cc:Work
         rdf:about="">
        <dc:format>image/svg+xml</dc:format>
        <dc:type
           rdf:resource="http://purl.org/dc/dcmitype/StillImage" />
        <cc:license
           rdf:resource="http://web.resource.org/cc/PublicDomain" />
        <dc:language>en</dc:language>
      </cc:Work>
    </rdf:RDF>
  </metadata>
  <sodipodi:namedview
     inkscape:window-height="1002"
     inkscape:window-width="1280"
     inkscape:pageshadow="2"
     inkscape:pageopacity="0.0"
     guidetolerance="10.0"
     gridtolerance="10.0"
     objecttolerance="10.0"
     borderopacity="1.0"
     bordercolor="#666666"
     pagecolor="#ffffff"
     id="base"
     inkscape:zoom="0.23041928"
     inkscape:cx="249.35892"
     inkscape:cy="340.54661"
     inkscape:window-x="388"
     inkscape:window-y="0"
     inkscape:current-layer="svg2"
     showgrid="false"
     inkscape:window-maximized="0" />
  <defs
     id="defs4">
    <inkscape:perspective
       sodipodi:type="inkscape:persp3d"
       inkscape:vp_x="0 : 290 : 1"
       inkscape:vp_y="0 : 1000 : 0"
       inkscape:vp_z="580 : 290 : 1"
       inkscape:persp3d-origin="290 : 193.33333 : 1"
       id="perspective3653" />
  </defs>
  <g
     id="g1327">
    <path
       d="M 66.275,1.768 C 24.94,1.768 1.704,23.139 1.704,66.804 L 1.704,516.927 C 1.704,557.771 22.6,579.156 63.896,579.156 L 515.92,579.156 C 557.227,579.156 578.149,558.842 578.149,516.927 L 578.149,66.804 C 578.149,24.203 557.227,1.768 514.628,1.768 C 514.624,1.768 66.133,1.625 66.275,1.768 z "
       style="fill:#111;stroke:#eee;stroke-width:3.40799999"
       id="path1329" />
  </g>
  <path
     d="m 520.67002,338.45755 c -4.07272,1.2435 -9.33253,1.00505 -16.23195,-0.47046 -7.01222,-1.59602 -13.40398,-9.03642 -25.05428,-8.62492 -11.93361,0.41408 -28.78858,11.10419 -45.0744,11.10419 -16.51654,-0.35125 -35.06625,-11.57721 -51.91995,-11.57721 -16.79729,0.11921 -32.06779,11.75284 -48.18564,12.10794 -16.40119,0.0577 -32.74595,-10.86576 -48.8074,-11.10163 -16.28837,-0.41278 -31.72808,9.68764 -46.94217,9.56714 -14.9872,-0.29356 -28.27837,-11.04523 -43.15276,-10.57345 -15.2705,0.59353 -32.01138,12.40406 -46.94216,13.11299 -15.0436,0.23715 -28.67449,-10.98369 -41.96439,-11.10421 -13.40272,-0.23587 -28.447585,8.20957 -37.496816,10.10044 -9.049246,1.71524 -14.761576,1.89215 -16.910118,0.53201 l 0,31.30375 c 2.148542,1.35757 7.860872,1.18195 16.910118,-0.53201 9.049231,-1.89085 24.092825,-10.33631 37.496816,-10.10042 13.29118,0.11921 26.92079,11.34006 41.96439,11.10163 14.93078,-0.58843 31.67166,-12.69764 46.94216,-13.11172 14.87439,-0.5897 28.16428,10.39527 43.15276,10.63116 15.21409,0.1205 30.6538,-9.91967 46.94217,-9.62482 16.06145,0.23459 32.40621,11.15929 48.8074,11.10289 16.11785,-0.3551 31.38835,-11.99129 48.18564,-12.10923 16.8537,-0.0564 35.40341,11.34135 51.91995,11.63877 16.28582,0 33.14208,-10.69397 45.0744,-11.10547 11.6503,-0.5333 18.04206,7.0276 25.05428,8.56337 6.89942,1.47679 12.15923,1.71266 16.23195,0.47175 l 0,-31.30248 z"
     i:knockout="Off"
     id="path113"
     style="clip-rule:evenodd;fill:#ffffff;fill-opacity:1;fill-rule:evenodd"
     inkscape:connector-curvature="0" />
  <path
     d="m 252.64917,303.36051 129.39927,-69.04286 c -10.17733,-22.3263 -17.36134,-39.15694 -21.54688,-51.14694 -4.29964,-11.93105 -6.10845,-14.58851 -3.6766,-20.25854 2.48824,-5.84695 -0.96146,-6.73276 17.98564,-14.46929 18.94456,-8.03266 75.61411,-31.06659 94.10741,-32.18829 18.09847,-0.9448 17.36391,19.01761 14.36672,25.75166 -3.28177,6.55458 -20.13547,8.20828 -32.91644,13.40655 -12.95275,4.96111 -27.20409,10.51193 -43.66168,16.655 l 59.21294,130.28893 c -7.63396,6.55459 -17.75875,9.09667 -31.44477,8.09036 -13.91293,-1.35502 -32.46393,-14.58465 -49.76885,-14.64747 -17.24984,0.0628 -36.9315,14.82693 -52.70964,15.12049 -15.83584,-0.0602 -28.39118,-12.81556 -41.62596,-14.11288 -13.28862,-1.30375 -25.78756,0.88068 -37.72116,6.55328 z"
     i:knockout="Off"
     id="path115"
     style="clip-rule:evenodd;fill:#ffffff;fill-opacity:1;fill-rule:evenodd"
     inkscape:connector-curvature="0" />
  <path
     d="m 485.13331,190.61879 c 19.94957,0 36.13796,16.90626 36.13796,37.73911 0,20.83285 -16.18965,37.7391 -36.13796,37.7391 -19.94831,0 -36.13925,-16.90625 -36.13925,-37.7391 0,-20.83285 16.18965,-37.73911 36.13925,-37.73911"
     i:knockout="Off"
     id="path117"
     style="clip-rule:evenodd;fill:#ffffff;fill-opacity:1;fill-rule:evenodd"
     inkscape:connector-curvature="0" />
  <path
     d="m 165.32709,305.89874 c -15.3269,-2.83565 -30.93583,-7.20194 -47.90234,-13.11297 -17.0806,-6.25716 -46.206333,-14.64619 -53.107037,-22.85575 -6.899416,-8.44544 -1.866507,-25.33632 12.047692,-26.10421 13.96806,-0.76787 41.681095,11.63492 70.468385,21.91225 28.6168,10.16067 61.36275,22.85831 99.99152,38.74543 -4.75087,2.5985 -11.02857,3.42535 -19.05992,2.24339 -8.1442,-1.36014 -18.43689,-8.86078 -28.90012,-9.09538 -10.51962,-0.17819 -21.54817,2.65747 -33.53818,8.26724 z"
     i:knockout="Off"
     id="path119"
     style="clip-rule:evenodd;fill:#ffffff;fill-opacity:1;fill-rule:evenodd"
     inkscape:connector-curvature="0" />
  <path
     d="m 520.67002,409.33261 c -4.07272,1.12042 -9.33253,0.9448 -16.23195,-0.532 -7.01222,-1.53449 -13.40398,-9.09794 -25.05428,-8.56593 -11.93361,0.41278 -28.78858,11.10289 -45.0744,11.10289 -16.51654,-0.35254 -35.06625,-11.57465 -51.91995,-11.57465 -16.79729,0.11922 -32.06779,11.75414 -48.18564,12.10666 -16.40119,0.0602 -32.74595,-10.86574 -48.8074,-11.1029 -16.28837,-0.41408 -31.72808,9.68635 -46.94217,9.56842 -14.9872,-0.29485 -28.27837,-11.04522 -43.15276,-10.57218 -15.2705,0.58968 -32.01138,12.40151 -46.94216,13.113 -15.0436,0.23459 -28.67449,-10.98754 -41.96439,-11.10548 -13.40272,-0.2346 -28.447585,8.20956 -37.496816,10.10043 -9.049246,1.83317 -14.761576,1.77165 -16.910118,0.47304 l 0,31.30246 c 2.148542,1.2986 7.860872,1.36014 16.910118,-0.47303 9.049231,-1.89215 24.092825,-10.33502 37.496816,-10.10042 13.29118,0.11793 26.92079,11.34005 41.96439,11.10545 14.93078,-0.71147 31.67166,-12.52329 46.94216,-13.11298 14.87439,-0.47303 28.16428,10.27733 43.15276,10.57218 15.21409,0.11794 30.6538,-9.98249 46.94217,-9.56843 16.06145,0.23717 32.40621,11.16317 48.8074,11.10292 16.11785,-0.35255 31.38835,-11.99129 48.18564,-12.10667 16.8537,0 35.40341,11.22212 51.91995,11.57466 16.28582,0 33.14208,-10.69012 45.0744,-11.10292 11.6503,-0.41406 18.04206,7.02633 25.05428,8.62363 6.89942,1.47681 12.15923,1.71396 16.23195,0.47434 l 0,-31.30249 z"
     i:knockout="Off"
     id="path121"
     style="clip-rule:evenodd;fill:#ffffff;fill-opacity:1;fill-rule:evenodd"
     inkscape:connector-curvature="0" />
  <path
     d="m 518.98652,480.1965 c -4.07272,1.12042 -9.33253,0.9448 -16.23195,-0.532 -7.01222,-1.53449 -13.40398,-9.09794 -25.05428,-8.56593 -11.93361,0.41278 -28.78858,11.10289 -45.0744,11.10289 -16.51654,-0.35254 -35.06625,-11.57465 -51.91995,-11.57465 -16.79729,0.11922 -32.06779,11.75414 -48.18564,12.10666 -16.40119,0.0602 -32.74595,-10.86574 -48.8074,-11.1029 -16.28837,-0.41408 -31.72808,9.68635 -46.94217,9.56842 -14.9872,-0.29485 -28.27837,-11.04522 -43.15276,-10.57218 -15.2705,0.58968 -32.01138,12.40151 -46.94216,13.113 -15.0436,0.23459 -28.67449,-10.98754 -41.96439,-11.10548 -13.40272,-0.2346 -28.44759,8.20956 -37.49682,10.10043 -9.04924,1.83317 -14.76157,1.77165 -16.91012,0.47304 l 0,31.30246 c 2.14855,1.2986 7.86088,1.36014 16.91012,-0.47303 9.04923,-1.89215 24.09283,-10.33502 37.49682,-10.10042 13.29118,0.11793 26.92079,11.34005 41.96439,11.10545 14.93078,-0.71147 31.67166,-12.52329 46.94216,-13.11298 14.87439,-0.47303 28.16428,10.27733 43.15276,10.57218 15.21409,0.11794 30.6538,-9.98249 46.94217,-9.56843 16.06145,0.23717 32.40621,11.16317 48.8074,11.10292 16.11785,-0.35255 31.38835,-11.99129 48.18564,-12.10667 16.8537,0 35.40341,11.22212 51.91995,11.57466 16.28582,0 33.14208,-10.69012 45.0744,-11.10292 11.6503,-0.41406 18.04206,7.02633 25.05428,8.62363 6.89942,1.47681 12.15923,1.71396 16.23195,0.47434 l 0,-31.30249 z"
     i:knockout="Off"
     id="path4736"
     style="clip-rule:evenodd;fill:#ffffff;fill-opacity:1;fill-rule:evenodd"
     inkscape:connector-curvature="0" />
</svg>

<svg width="580" height="580" viewBox="0 0 580 580" fill="none" xmlns="http://www.w3.org/2000/svg">
<g clip-path="url(#clip0)">
<path d="M66.2751 1.76815C24.9401 1.76815 1.7041 23.1391 1.7041 66.8041V516.927C1.7041 557.771 22.6001 579.156 63.8961 579.156H515.92C557.227 579.156 578.149 558.842 578.149 516.927V66.8041C578.149 24.2031 557.227 1.76815 514.628 1.76815C514.624 1.76815 66.1331 1.62515 66.2751 1.76815Z" fill="#111111" stroke="#EEEEEE" stroke-width="3.408"/>
<path fill-rule="evenodd" clip-rule="evenodd" d="M520.67 338.457C516.597 339.701 511.337 339.463 504.438 337.987C497.426 336.391 491.034 328.951 479.384 329.362C467.45 329.776 450.595 340.466 434.309 340.466C417.793 340.115 399.243 328.889 382.389 328.889C365.592 329.008 350.321 340.642 334.204 340.997C317.802 341.055 301.458 330.131 285.396 329.895C269.108 329.483 253.668 339.583 238.454 339.463C223.467 339.169 210.176 328.417 195.301 328.889C180.031 329.483 163.29 341.293 148.359 342.002C133.316 342.239 119.685 331.018 106.395 330.898C92.992 330.662 77.9471 339.107 68.8979 340.998C59.8487 342.714 54.1363 342.89 51.9878 341.53V372.834C54.1363 374.192 59.8487 374.016 68.8979 372.302C77.9471 370.411 92.9907 361.966 106.395 362.202C119.686 362.321 133.316 373.542 148.359 373.303C163.29 372.715 180.031 360.606 195.301 360.192C210.176 359.602 223.466 370.587 238.454 370.823C253.668 370.943 269.108 360.903 285.396 361.198C301.458 361.432 317.802 372.357 334.204 372.301C350.321 371.946 365.592 360.31 382.389 360.192C399.243 360.135 417.793 371.533 434.309 371.83C450.595 371.83 467.451 361.136 479.384 360.725C491.034 360.192 497.426 367.752 504.438 369.288C511.337 370.765 516.597 371.001 520.67 369.76V338.457V338.457Z" fill="white"/>
<path fill-rule="evenodd" clip-rule="evenodd" d="M252.649 303.361L382.049 234.318C371.871 211.992 364.687 195.161 360.502 183.171C356.202 171.24 354.393 168.583 356.825 162.913C359.313 157.066 355.864 156.18 374.811 148.443C393.755 140.411 450.425 117.377 468.918 116.255C487.017 115.31 486.282 135.273 483.285 142.007C480.003 148.561 463.149 150.215 450.369 155.413C437.416 160.374 423.164 165.925 406.707 172.068L465.92 302.357C458.286 308.912 448.161 311.454 434.475 310.448C420.562 309.093 402.011 295.863 384.706 295.8C367.456 295.863 347.775 310.627 331.997 310.921C316.161 310.86 303.605 298.105 290.371 296.808C277.082 295.504 264.583 297.688 252.649 303.361V303.361Z" fill="white"/>
<path fill-rule="evenodd" clip-rule="evenodd" d="M485.133 190.619C505.083 190.619 521.271 207.525 521.271 228.358C521.271 249.191 505.082 266.097 485.133 266.097C465.185 266.097 448.994 249.191 448.994 228.358C448.994 207.525 465.184 190.619 485.133 190.619" fill="white"/>
<path fill-rule="evenodd" clip-rule="evenodd" d="M165.327 305.899C150 303.063 134.391 298.697 117.425 292.786C100.344 286.529 71.2184 278.14 64.3177 269.93C57.4183 261.485 62.4512 244.594 76.3654 243.826C90.3334 243.058 118.046 255.461 146.834 265.738C175.451 275.899 208.197 288.597 246.825 304.484C242.074 307.082 235.797 307.909 227.765 306.727C219.621 305.367 209.328 297.866 198.865 297.632C188.346 297.453 177.317 300.289 165.327 305.899Z" fill="white"/>
<path fill-rule="evenodd" clip-rule="evenodd" d="M520.67 409.333C516.597 410.453 511.337 410.278 504.438 408.801C497.426 407.266 491.034 399.703 479.384 400.235C467.45 400.648 450.595 411.338 434.309 411.338C417.793 410.985 399.243 399.763 382.389 399.763C365.592 399.882 350.321 411.517 334.204 411.87C317.802 411.93 301.458 401.004 285.396 400.767C269.108 400.353 253.668 410.453 238.454 410.335C223.467 410.041 210.176 399.29 195.301 399.763C180.031 400.353 163.29 412.165 148.359 412.876C133.316 413.111 119.685 401.889 106.395 401.771C92.992 401.536 77.9471 409.98 68.8979 411.871C59.8487 413.704 54.1363 413.643 51.9878 412.344V443.647C54.1363 444.945 59.8487 445.007 68.8979 443.174C77.9471 441.281 92.9907 432.839 106.395 433.073C119.686 433.191 133.316 444.413 148.359 444.179C163.29 443.467 180.031 431.655 195.301 431.066C210.176 430.593 223.466 441.343 238.454 441.638C253.668 441.756 269.108 431.655 285.396 432.069C301.458 432.307 317.802 443.233 334.204 443.172C350.321 442.82 365.592 431.181 382.389 431.066C399.243 431.066 417.793 442.288 434.309 442.64C450.595 442.64 467.451 431.95 479.384 431.537C491.034 431.123 497.426 438.564 504.438 440.161C511.337 441.638 516.597 441.875 520.67 440.635V409.333V409.333Z" fill="white"/>
<path fill-rule="evenodd" clip-rule="evenodd" d="M518.987 480.196C514.914 481.317 509.654 481.141 502.755 479.664C495.743 478.13 489.351 470.566 477.701 471.098C465.767 471.511 448.912 482.201 432.626 482.201C416.11 481.849 397.56 470.626 380.706 470.626C363.909 470.746 348.638 482.381 332.521 482.733C316.119 482.793 299.775 471.867 283.713 471.63C267.425 471.216 251.985 481.317 236.771 481.199C221.784 480.904 208.493 470.153 193.618 470.626C178.348 471.216 161.607 483.028 146.676 483.739C131.632 483.974 118.002 472.752 104.712 472.634C91.3089 472.399 76.264 480.844 67.2148 482.734C58.1656 484.568 52.4532 484.506 50.3047 483.207V514.51C52.4532 515.809 58.1656 515.87 67.2148 514.037C76.264 512.145 91.3076 503.702 104.712 503.936C118.003 504.054 131.632 515.277 146.676 515.042C161.607 514.33 178.348 502.519 193.618 501.929C208.493 501.456 221.782 512.206 236.771 512.501C251.985 512.619 267.425 502.519 283.713 502.933C299.775 503.17 316.119 514.096 332.521 514.036C348.638 513.683 363.909 502.044 380.706 501.929C397.56 501.929 416.11 513.151 432.626 513.504C448.912 513.504 465.768 502.814 477.701 502.401C489.351 501.987 495.743 509.427 502.755 511.024C509.654 512.501 514.914 512.738 518.987 511.499V480.196V480.196Z" fill="white"/>
</g>
<defs>
<clipPath id="clip0">
<path d="M0 0H580V580H0V0Z" fill="white"/>
</clipPath>
</defs>
</svg>
